X:1
T:Church of God, Awake
T:Church of God, Awake
T:Tullius Clinton O’Kane
T:Emily J. Bugbee, 1874
T:Public Domain Courtesy of the Cyber Hymnal™
T:Public Domain Courtesy of the Cyber Hymnal™
C:Tullius Clinton O’Kane
Z:Public Domain
Z:Courtesy of the Cyber Hymnal™
%%score ( 1 2 ) ( 3 4 )
L:1/8
Q:1/4=100
M:4/4
K:Bb
V:1 treble 
V:2 treble 
V:3 bass 
V:4 bass 
V:1
 [DF]>[EG] [DF]>[^C=E] [DF]2 [DF]2 | ([Fd]3 [Ec]) [DB]2 z2 | [EG]>[E^F] [EG]>[EA] [GB]2 (AG) | %3
w: 1.~Church~ of God, whose con- quering|ban- * ners|Float a- long the glor- ious *|
w: 2.~In your cost- ly tem- ples|pray- * ing,|“Let Thy king- dom come,” we *|
w: 3.~Grace and glo- ry He hath|sent * you,|Cast your line in plac- es *|
w: 4.~Shake the earth and rend the|hea- * ven,|Wake thy sleep- ing child- ren, *|
 [DF]6 z2 | [DF]>[EG] [DF]>[^C=E] [DF]2 [DF]2 | ([Fd]3 [Ec]) [DB]2 z2 | %6
w: years,|Gath- ering har- vest rich and|gold- * en,|
w: pray,|Are but words of i- dle|mean- * ing,|
w: fair;|Scat- ter bless- ings now, He|bids * you,|
w: Lord,|Till the mea- sure full and|e- * ven|
 [FA]2 [GB]2 [Fc]>[FA] [=EG]>[EA] | F6 z2 | [Fc]2 [Fc]2 [Fc]>[FB] [Fc]>[Fd] | [Ae]4 [Ac]2 z2 | %10
w: Sowed in pov- er- ty and|tears;|On- ward press, the cross is|bend- ing|
w: If with these we turn a-|way.|Bound- less wealth to you is|giv- en,|
w: O’er His green earth ev- ery-|where.|Till the mil- lions in the|twi- light|
w: Has been ren- dered at Thy|word.|Then from out her chrism of|sor- row|
 [Fd]2 [Fd]2 [Fd]>[Fc] [FB]>[Fd] | (c2 d2 !fermata![Ae]2) z2 | [Fd]>[Ge] [Fd]>[Ec] [DB]2 F2 | %13
w: Far to- ward the morn- ing|skies, * *|Speed- y dawn of light por-|
w: From His hand who owns it|all, * *|And His eye be- holds in|
w: Of the far off Ori- ent|land, * *|In the gra- cious morn- ing|
w: Shall the earth re- deemed a-|rise. * *|And the fair mil- len- ia|
 [EA]2 [EG]4 z2 | [DF]>[DF] [D=E]>F .[EG]2 .[EA]2 | .[DB]4 z2 ||"^Refrain" [DB]>[Ec] | %17
w: tend- ing,|Church of God, a- wake! a-|rise!||
w: Hea- ven|What ye ren- der back for|all.|Church of|
w: splen- dor|Of the Gos- pel light shall|stand.||
w: mor- row|Dawn with o- pal tint- ed|skies.||
 [Fd]4- [Fd]>[Ge] [Fd]>[Ec] | [DB]4 z2 [CA]>[DB] | [Ec]4- [Ec]>[DB] [Fe]>[Fd] | %20
w: |||
w: God, * a- wake! a-|rise! Christ, your|head * and mas- ter,|
w: |||
w: |||
 [Fc]4 z2 [FB]>[Fc] | [Dd-]4 [Fd]>[Ec] (3([DB][EA])[FB] | [EG]4 z2 [EA]>[EB] | %23
w: |||
w: cries, “Send the|Gos- pel’s joy- ful * sound|Un- to earth’s|
w: |||
w: |||
 [DF]2 ([^C=E][DF]) [_EG]2 [EA]2 | [DB]6 z2 |] %25
w: ||
w: re- mot- * est bound.”||
w: ||
w: ||
V:2
 x8 | x8 | x6 E2 | x8 | x8 | x8 | x8 | F6 x2 | x8 | x8 | x8 | F4 x4 | x6 F2 | x8 | x7/2 F/ x4 | %15
 x6 || x2 | x8 | x8 | x8 | x8 | x8 | x8 | x8 | x8 |] %25
V:3
 [B,,B,]>[B,,B,] [B,,B,]>[B,,B,] [B,,B,]2 [B,,B,]2 | [B,,B,]4 [B,,F,]2 z2 | %2
w: ||
 [E,G,]>[E,A,] [E,B,]>[E,C] [E,B,]2 (CB,) | [B,,B,]6 z2 | %4
w: ||
 [B,,B,]>[B,,B,] [B,,B,]>[B,,B,] [B,,B,]2 [B,,B,]2 | [B,,B,]4 [B,,F,]2 z2 | %6
w: ||
 [C,C]2 [C,C]2 [C,A,]>[C,C] [C,B,]>[C,C] | [F,,F,B,]6 z2 | %8
w: ||
 [F,A,]2 [F,A,]2 [F,A,]>[F,G,] [F,A,]>[F,B,] | [F,C]4 [F,C]2 z2 | B,2 B,2 B,>A, [D,B,]>[B,,B,] | %11
w: ||Church of God, * * *|
 (A,2 B,2 !fermata!C2) z2 | [B,,B,]>[B,,B,] [B,,B,]>[B,,B,] [B,,B,]2 [D,B,]2 | [E,C]2 [E,B,]4 z2 | %14
w: |||
 [F,B,]>[F,B,] [F,B,]>[F,D] [F,C]2 [F,C]2 | [B,,B,]4 z2 || z2 | %17
w: |||
 [B,,B,]2 [B,,B,]2 [B,,B,]2 [B,,B,]2 | [B,,F,]2 [B,,F,]2 [B,,F,]2 z2 | %19
w: a- wake! a- rise!|Christ, your head|
 [F,A,]2 [F,A,]2 [F,A,]2 (C>B,) | [F,A,]2 [F,A,]2 ([F,A,]>[E,C]) ([D,B,]>[C,A,]) | %21
w: and mas- ter cries, *|Oh, send the * Gos- *|
 [B,,B,]2 [B,,B,]2 [B,,B,]2 F,2 | [E,B,]2 [E,B,]2 [E,B,]2 [E,C]>[E,C] | %23
w: pel’s joy- ful sound||
 [F,B,]2 [F,B,]2 [F,,F,B,]2 [F,,F,C]2 | [B,,F,B,]6 z2 |] %25
w: ||
V:4
 x8 | x8 | x6 E,2 | x8 | x8 | x8 | x8 | x8 | x8 | x8 | B,2 B,2 B,3/2 x5/2 | F,6 x2 | x8 | x8 | x8 | %15
 x6 || x2 | x8 | x8 | x6 F,2 | x8 | x6 (3(B,,C,)D, | x8 | x8 | x8 |] %25

